X: 7
T:Oh, Those Britches Full Of Stitches
M:2/4
L:1/8
R:Polka
K:A
A>B cA|BA cA|A>B cA|BA F2|!
A>B cA|BA ce|A>B AF|FE E2:|!
|:e>f ec|BA Bc|e>f ec|BA F2|!
e>f ec|BA ce|A>B AF|FE E2:|]!
